icons/templates-32.svg

<?xml version="1.0" encoding="UTF-8"?><svg id="icons" xmlns="http://www.w3.org/2000/svg" viewBox="0 0 32 32"><defs><style>.cls-1{fill:none;}.cls-1,.cls-2{stroke-width:0px;}</style></defs><rect class="cls-1" width="32" height="32"/><path class="cls-2" d="M27.99902,3H3.99799c-1.1015,0-1.99299.89844-1.99299,2l-.005,22.99799c0,1.10358.89648,2.00201,1.99799,2.00201h24.00104c1.10345,0,2.00098-.89844,2.00098-2.00201V5.00781c0-1.10156-.89752-2.00781-2.00098-2.00781ZM29,28.00201c0,.55066-.44733.99799-.99902.99799H3.99902c-.55176,0-.99902-.44733-.99902-.99799V5c0-.55273.44727-1,.99902-1h24.00195c.5517,0,.99902.44727.99902,1v23.00201ZM4,5v23h24V5H4ZM27,27H5V6h22v21ZM26,10h-14v-1h14v1ZM26,17h-14v-1h14v1ZM26,24h-14v-1h14v1ZM6,7v5h5v-5h-5ZM10,11h-3v-3h3v3ZM6,14v5h5v-5h-5ZM10,18h-3v-3h3v3ZM6,21v5h5v-5h-5ZM10,25h-3v-3h3v3Z"/></svg>

<svg xmlns="http://www.w3.org/2000/svg" viewBox="0 0 32 32"><path stroke-width="0" fill="none" d="M0 0h32v32H0z"/><path d="M27.999 3H3.998a1.998 1.998 0 0 0-1.993 2L2 27.998C2 29.102 2.896 30 3.998 30h24.001A2.004 2.004 0 0 0 30 27.998V5.008A2.01 2.01 0 0 0 27.999 3zM29 28.002a1 1 0 0 1-.999.998H3.999A.999.999 0 0 1 3 28.002V5a1 1 0 0 1 .999-1h24.002A1 1 0 0 1 29 5v23.002zM4 5v23h24V5H4zm23 22H5V6h22v21zm-1-17H12V9h14v1zm0 7H12v-1h14v1zm0 7H12v-1h14v1zM6 7v5h5V7H6zm4 4H7V8h3v3zm-4 3v5h5v-5H6zm4 4H7v-3h3v3zm-4 3v5h5v-5H6zm4 4H7v-3h3v3z" stroke-width="0"/></svg>
